X:1
T:Pange lingua - Grazioli
T:James Gibb editions
%%score { 1 | 2 } 3
L:1/8
Q:1/4=69
M:4/4
K:G
V:1 treble nm="Soprano I" snm="S"
V:2 treble 
V:3 treble nm="Alto" snm="A"
V:1
 z2"^Pange lingua""^G Battista Grazioli\n(1755-1820)""^maestoso"!mf! d4 d2 | e4 d4 | %2
w: Pan- ge|lin- gua|
w: In su-|pre- mae|
!<(! c2 B2 (B3!<)! ^c) | d4 z2 d2- | d2 e2 (d=c) B2 | A3 A B4 |[M:4/4] z2 d4 ^d2 | e2 e2 f2 ^d2 | %8
w: glo- ri- o\- *|si Cor\-|* po- ris * my-|ste- ri- um,|San- gui-|ni- sque pre- ti-|
w: no- cte coe\- *|nae, re\-|* cum- bens * cum|fra- tri- bus|ob- ser-|va- ta le- ge|
 e4 ^d4 | z2 e4 e2 | e2 d2 ^c3 c | B4 z2 B2- | B2 B2 B2 B2 | B2 (B=c) d2 d2 | z2 e4 c2 | A4 B4 | %16
w: o- si,|quem in|mun- di pre- ti-|um fru\-|* ctus ven- tris|ge- ne\- * ro- si|Rex ef-|fu- dit|
w: ple- ne|ci- bis|in le- ga- li-|bus, ci\-|* bum tur- bae|du- o\- * de- nae|se dat|su- is|
 (B2 AG A3) A | !fermata!G8 |] %18
w: ge\- * * * ti-|um.|
w: ma\- * * * ni-|bus.|
V:2
 z2!mf! B4 B2 | c4 B4 | A2 G2 G4 | F4 z2 G2- | G2 G2 F2 G2 | G2 F2 G4 |[M:4/4] z2 B4 A2 | %7
w: Pan- ge|lin- gua|glo- ri- o-|si Cor\-|* po- ris my-|ste- ri- um,|San- gui-|
w: In su-|pre- mae|no- cte coe-|nae, re\-|* cum- bens cum|fra- tri- bus|ob- ser-|
 G2 G2 B2 B2 | (B2 A2) B4 | z2 G4 B2 | ^A2 B2 B2 A2 | B4 z2 G2- | G2 G2 F2 F2 | G2 G2 G2 G2 | %14
w: ni- sque pre- ti-|o\- * si,|quem in|mun- di pre- ti-|um fru\-|* ctus ven- tris|ge- ne- ro- si|
w: va- ta le- ge|ple\- * ne|ci- bis|in le- ga- li-|bus, ci\-|* bum tur- bae|du- o- de- nae|
 z2 G4 G2 | F4 G4 | (G2 FE F3) F | !fermata!G8 |] %18
w: Rex ef-|fu- dit|ge\- * * * ti-|um.|
w: se dat|su- is|ma\- * * * ni-|bus.|
V:3
 z2!mf! G4 G2 | G4 G4 | D2 G2 E4 | D4 z2 B,2- | B,2 C2 D2 G,2 | D2 D2 [G,G]4 |[M:4/4] z2 G4 F2 | %7
w: Pan- ge|lin- gua|glo- ri- o-|si Cor\-|* po- ris my-|ste- ri- um,|San- gui-|
w: In su-|pre- mae|no- cte coe-|nae, re\-|* cum- bens cum|fra- tri- bus|ob- ser-|
 E2 E2 ^D2 B,2 | C4 B,4 | z2 E4 G2 | F2 B,2 F3 F | B,4 z2 G2- | G2 (FE) ^D2 D2 | E2 (=DC) B,2 B,2 | %14
w: ni- sque pre- ti-|o- si,|quem in|mun- di pre- ti-|um fru\-|* ctus * ven- tris|ge- ne\- * ro- si|
w: va- ta le- ge|ple- ne|ci- bis|in le- ga- li-|bus, ci\-|* bum * tur- bae|du- o\- * de- nae|
 z2 C4 C2 | D4 G,4 | D6 D2 | !fermata!G,8 |] %18
w: Rex ef-|fu- dit|ge- ti-|um.|
w: se dat|su- is|ma- ni-|bus.|

